src/assets/icons/shapes,fancy,filled-octagon.svg

<svg width="48" height="48" viewBox="0 0 48 48" fill="none" xmlns="http://www.w3.org/2000/svg">
<path d="M22.4693 4.63405C23.2245 4.32121 23.6022 4.16478 24 4.16478C24.3978 4.16478 24.7755 4.32121 25.5307 4.63405L36.6114 9.22381C37.3667 9.53666 37.7443 9.69308 38.0256 9.97438C38.3069 10.2557 38.4633 10.6333 38.7762 11.3886L43.3659 22.4693C43.6788 23.2245 43.8352 23.6022 43.8352 24C43.8352 24.3978 43.6788 24.7755 43.3659 25.5307L38.7762 36.6114C38.4633 37.3667 38.3069 37.7443 38.0256 38.0256C37.7443 38.3069 37.3667 38.4633 36.6114 38.7762L25.5307 43.3659C24.7755 43.6788 24.3978 43.8352 24 43.8352C23.6022 43.8352 23.2245 43.6788 22.4693 43.3659L11.3886 38.7762C10.6333 38.4633 10.2557 38.3069 9.97438 38.0256C9.69308 37.7443 9.53666 37.3667 9.22381 36.6114L4.63405 25.5307C4.32121 24.7755 4.16478 24.3978 4.16478 24C4.16478 23.6022 4.32121 23.2245 4.63405 22.4693L9.22381 11.3886C9.53666 10.6333 9.69308 10.2557 9.97438 9.97438C10.2557 9.69308 10.6333 9.53666 11.3886 9.22381L22.4693 4.63405Z" fill="black"/>
</svg>

<svg xmlns="http://www.w3.org/2000/svg" width="48" height="48" fill="none" viewBox="0 0 48 48">
  <path fill="#000" d="M22.47 4.634c.755-.313 1.132-.47 1.53-.47.398 0 .776.157 1.53.47l11.081 4.59c.756.313 1.133.47 1.415.75.28.282.437.66.75 1.415l4.59 11.08c.313.755.47 1.133.47 1.531 0 .398-.157.776-.47 1.53l-4.59 11.081c-.313.756-.47 1.133-.75 1.415-.282.28-.66.437-1.415.75l-11.08 4.59c-.755.313-1.133.47-1.531.47-.398 0-.776-.157-1.53-.47l-11.081-4.59c-.756-.313-1.133-.47-1.415-.75-.28-.282-.437-.66-.75-1.415l-4.59-11.08c-.313-.755-.47-1.133-.47-1.531 0-.398.157-.776.47-1.53l4.59-11.081c.313-.756.47-1.133.75-1.415.282-.28.66-.437 1.415-.75l11.08-4.59z"/>
</svg>
